X:1
T:Sunday School Volunteer Song
T:William Batchelder Bradbury
T:Sunday School Volunteer Song
T:Public Domain
T:Public Domain
T:Public Domain
C:William Batchelder Bradbury
Z:Public Domain
%%score ( 1 2 ) ( 3 4 )
L:1/8
M:4/4
K:Ab
V:1 treble 
V:2 treble 
V:3 bass 
V:4 bass 
V:1
 x8 |: [CA]>[DB] | [Ec]2 [CE]2 [CA]2 [Ec]2 | [Ec]>[DB] [DB]>[C=A] [DB]2 [DB]>[Cc] | %4
w: |1.~We are|march- ing on with|shield and ban- ner bright, We will|
w: |~~~~In the|Sun- day School our|ar- my we pre- pare, As we|
w: |2.~We are|march- ing on, our|Cap- tain, ev- er near, Will pro-|
w: |~~~~Then a-|wake, a- wake, our|hap- py, hap- py song, We will|
 [B,d]2 E2 [EB]2 [Bd]2 | [Bd]>[Ac] [Ac]>[GB] [Ac]2 [CA]>[DB] | [Ec]2 E2 [EA]2 [Ec]2 | %7
w: work for God and|tle for the right, We will praise|His Name, re- joic-|
w: ral- ly round our|èd stand- ard there, And the Sav-|ior’s cross we ear-|
w: tect us still, His|tle voice we hear: Let the foe|ad- vance, we’ll ne-|
w: shout for joy, and|ly march a- long; In the Lord|of Hosts let ev-|
 [Fc]>[FB] [FB]>[F=A] [FB]2 [F_A]>[DF] | [CE]2 [EA]2 [EG]2 (F>G) | [CA]6 :|"^Refrain" [Ac]>[Bd] | %11
w: in His might, And we’ll work till|Je- sus calls. * *|||
w: learn to bear, While we work till|Je- sus comes. Then *|wake,|then a-|
w: ne- ver fear, For we’ll work till|Je- sus calls. * *|||
w: heart be strong, While we work till|Je- sus comes. * *|||
 [ce]6 [Ac]>[Bd] | [ce]6 [Bd]>[Ac] | [Bd]6 [Ac]>[GB] | [Ac]6 [Ac]>[Bd] | [ce]6 [Ac]>[Bd] | %16
w: |||||
w: wake, hap- py|song, hap- py|song, Shout for|joy, shout for|joy, as we|
w: |||||
w: |||||
 [ce]6 [Ac]>[Ac] | [GB]2 [Ge]2 [Fe]2 [F=d]2 | [Ge]6 [CA]>[DB] | [Ec]2 [CE]2 [CA]2 [Ec]2 | %20
w: ||||
w: glad- ly march|a- long. We are|march- ing on-|ward, sing- ing as|
w: ||||
w: ||||
 [Ec]>[DB] [DB]>[C=A] [DB]2 [DB]>[Cc] | [B,d]2 E2 [EB]2 [Bd]2 | %22
w: ||
w: we go, To the prom- ised land|where liv- ing wa-|
w: ||
w: ||
 [Bd]>[Ac] [Ac]>[GB] [Ac]2 [CA]>[DB] | [Ec]2 E2 [EA]2 [Ec]2 | %24
w: ||
w: flow; Come and join our ranks as|pil- grims here be-|
w: ||
w: ||
 [Fc]>[FB] [FB]>[F=A] [FB]2 [F_A]>[DF] | [CE]2 [EA]2 [EG]2 (F>G) | [CA]6 |] %27
w: |||
w: Come and work till Je- sus calls.|||
w: |||
w: |||
V:2
 x8 |: x2 | x8 | x8 | x2 E2 x4 | x8 | x2 E2 x4 | x8 | x6 D2 | x6 :| x2 | x8 | x8 | x8 | x8 | x8 | %16
w: ||||bat-||ing||||||||||
w: ||||bless-||ly||a-||||||||
w: ||||gen-||ver,||||||||||
w: ||||glad-||ery||||||||||
 x8 | x8 | x8 | x8 | x8 | x2 E2 x4 | x8 | x2 E2 x4 | x8 | x6 D2 | x6 |] %27
w: |||||||||||
w: |||||ters||low,||||
w: |||||||||||
w: |||||||||||
V:3
 x8 |: A,>A, | [A,,A,]2 A,2 A,2 A,2 | [D,F,]>[D,F,] [D,F,]>[D,F,] [D,F,]2 [E,G,]>[E,A,] | %4
w: |~ ~|~ ~ ~ ~|~ ~ ~ ~ ~ ~ ~|
 [E,B,]2 [E,G,]2 [E,G,]2 [E,G,]2 | [A,,E,]>[A,,E,] [A,,E,]>[A,,E,] [A,,E,]2 A,>A, | %6
w: ~ ~ ~ ~|~ ~ ~ ~ ~ ~ ~|
 A,2 [A,C]2 [A,C]2 A,2 | [D,D]>[D,D] [D,D]>[D,D] [D,D]2 [D,D]>[D,A,] | %8
w: ~ ~ ~ ~|~ ~ ~ Then a- wake, then|
 [E,A,]2 [E,C]2 [E,B,]2 [E,B,]2 | [A,,A,]6 :| z2 | z2 A,>A, A,4 | z2 A,>A, A,4 | %13
w: a- wake, hap- py|song,||hap- py song,|shout for joy,|
 z2 [E,E]>[E,E] [E,E-]4 | z2 A,,>A,, A,,4 | z2 A,>A, A,4 | z2 A,>A, A,2 [A,E]>[A,E] | %17
w: ly march a-|long. * *|||
 [B,E]2 B,2 [B,,B,]2 [B,,B,]2 | (z2 E,>F, E,>D,) [C,A,]>[B,,A,] | [A,,A,]2 A,2 A,2 A,2 | %20
w: |||
 [D,F,]>[D,F,] [D,F,]>[D,F,] [D,F,]2 [E,G,]>[E,A,] | [E,B,]2 [E,G,]2 [E,G,]2 [E,G,]2 | %22
w: ||
 [A,,E,]>[A,,E,] [A,,E,]>[A,,E,] [A,,E,]2 A,>A, | A,2 [A,C]2 [A,C]2 A,2 | %24
w: ||
 [D,D]>[D,D] [D,D]>[D,D] [D,D]2 [D,D]>[D,A,] | [E,A,]2 [E,C]2 [E,B,]2 [E,B,]2 | [A,,A,]6 |] %27
w: |||
V:4
 x8 |: A,>A, | x2 A,2 A,2 A,2 | x8 | x8 | x6 A,>A, | A,2 x2 A,2 x2 | x8 | x8 | x6 :| x2 | %11
w: |~ ~|~ ~ ~|||~ ~|~ ~|||||
 x2 A,>A, A,4 | x2 A,>A, A,4 | x8 | E6 x2 | x2 A,>A, A,4 | x2 A,>A, A,2 x2 | x2 B,2 x4 | %18
w: Shout for joy,|As we glad-||||||
 [E,B,]6 x2 | x2 A,2 A,2 A,2 | x8 | x8 | x6 A,>A, | A,2 x2 A,2 x2 | x8 | x8 | x6 |] %27
w: |||||||||

